libs/core/assets/icons/eye.svg

<svg width="24" height="24" viewBox="0 0 24 24" fill="none" xmlns="http://www.w3.org/2000/svg">
<path fill-rule="evenodd" clip-rule="evenodd" d="M2.14074 12C2.25003 12.1889 2.39492 12.4296 2.57441 12.7075C3.03543 13.4213 3.71817 14.3706 4.60454 15.3161C6.39552 17.2264 8.89951 19 12 19C15.1005 19 17.6045 17.2264 19.3955 15.3161C20.2818 14.3706 20.9646 13.4213 21.4256 12.7075C21.6051 12.4296 21.75 12.1889 21.8593 12C21.75 11.8111 21.6051 11.5704 21.4256 11.2925C20.9646 10.5787 20.2818 9.6294 19.3955 8.68394C17.6045 6.77356 15.1005 5 12 5C8.89951 5 6.39552 6.77356 4.60454 8.68394C3.71817 9.6294 3.03543 10.5787 2.57441 11.2925C2.39492 11.5704 2.25003 11.8111 2.14074 12ZM23 12C23.8944 11.5528 23.8943 11.5524 23.8941 11.5521L23.8925 11.5489L23.889 11.542L23.8777 11.5198C23.8681 11.5013 23.8546 11.4753 23.8372 11.4424C23.8025 11.3767 23.752 11.2832 23.686 11.166C23.5542 10.9316 23.3601 10.6015 23.1057 10.2075C22.5979 9.42131 21.8432 8.3706 20.8545 7.31606C18.8955 5.22644 15.8995 3 12 3C8.10049 3 5.10448 5.22644 3.14546 7.31606C2.15683 8.3706 1.40207 9.42131 0.894336 10.2075C0.63985 10.6015 0.445792 10.9316 0.313971 11.166C0.248023 11.2832 0.19754 11.3767 0.162753 11.4424C0.145357 11.4753 0.131875 11.5013 0.122338 11.5198L0.11099 11.542L0.107539 11.5489L0.10637 11.5512C0.106186 11.5516 0.105573 11.5528 1 12L0.105573 11.5528C-0.0351909 11.8343 -0.0351909 12.1657 0.105573 12.4472L1 12C0.105573 12.4472 0.105389 12.4468 0.105573 12.4472L0.107539 12.4511L0.11099 12.458L0.122338 12.4802C0.131875 12.4987 0.145357 12.5247 0.162753 12.5576C0.19754 12.6233 0.248023 12.7168 0.313971 12.834C0.445792 13.0684 0.63985 13.3985 0.894336 13.7925C1.40207 14.5787 2.15683 15.6294 3.14546 16.6839C5.10448 18.7736 8.10049 21 12 21C15.8995 21 18.8955 18.7736 20.8545 16.6839C21.8432 15.6294 22.5979 14.5787 23.1057 13.7925C23.3601 13.3985 23.5542 13.0684 23.686 12.834C23.752 12.7168 23.8025 12.6233 23.8372 12.5576C23.8546 12.5247 23.8681 12.4987 23.8777 12.4802L23.889 12.458L23.8925 12.4511L23.8936 12.4488C23.8938 12.4484 23.8944 12.4472 23 12ZM23 12L23.8944 12.4472C24.0352 12.1657 24.0348 11.8336 23.8941 11.5521L23 12Z" fill="#888C90"/>
<path fill-rule="evenodd" clip-rule="evenodd" d="M12 10C10.8954 10 10 10.8954 10 12C10 13.1046 10.8954 14 12 14C13.1046 14 14 13.1046 14 12C14 10.8954 13.1046 10 12 10ZM8 12C8 9.79086 9.79086 8 12 8C14.2091 8 16 9.79086 16 12C16 14.2091 14.2091 16 12 16C9.79086 16 8 14.2091 8 12Z" fill="#888C90"/>
</svg>

<svg fill="none" height="24" viewBox="0 0 24 24" width="24" xmlns="http://www.w3.org/2000/svg"><path clip-rule="evenodd" d="M2.14 12a18.68 18.68 0 002.464 3.316C6.397 17.226 8.9 19 12 19c3.1 0 5.605-1.774 7.395-3.684A18.684 18.684 0 0021.86 12a18.681 18.681 0 00-2.464-3.316C17.605 6.774 15.101 5 12 5 8.9 5 6.396 6.774 4.605 8.684A18.678 18.678 0 002.14 12zM23 12l.894-.448-.002-.003-.003-.007-.011-.022a10.615 10.615 0 00-.192-.354 20.675 20.675 0 00-2.831-3.85C18.895 5.226 15.899 3 12 3 8.1 3 5.104 5.226 3.145 7.316a20.674 20.674 0 00-2.831 3.85 12.375 12.375 0 00-.192.354l-.011.022-.003.007-.002.002s0 .002.894.449l-.894-.447a1 1 0 000 .894L1 12l-.894.447.002.004.003.007.011.022a8.267 8.267 0 00.192.354 20.67 20.67 0 002.831 3.85C5.105 18.774 8.1 21 12 21c3.9 0 6.895-2.226 8.855-4.316a20.672 20.672 0 002.831-3.85 11.81 11.81 0 00.192-.354l.011-.022.003-.007.002-.002s0-.002-.894-.449zm0 0l.894.447c.141-.281.14-.613 0-.895L23 12z" fill="#888C90" fill-rule="evenodd"/><path clip-rule="evenodd" d="M12 10a2 2 0 100 4 2 2 0 000-4zm-4 2a4 4 0 118 0 4 4 0 01-8 0z" fill="#888C90" fill-rule="evenodd"/></svg>
